X: 20008
T: Jimmy Allen
R: polka
M: 2/4
K: Gmajor
M:2/4
|:G>A|BG GA|B2 GA/B/|c/B/A AB|cd/c/ BA|
Gg- ge|d2 B>c|dd c/B/A|G2:|
|:B>A|Gg gf|e/f/e/d/ cB|Aa- ag|f/e/d ef|
gg/a/ g/f/e|d2 B>c|dd c/B/A|G2:|

